Icons/rename_me_get_video.svg

<svg viewBox="0 0 48 48" xmlns:xlink="http://www.w3.org/1999/xlink">
 <defs>
  <linearGradient id="0">
   <stop stop-opacity="0"/>
   <stop offset="1"/>
  </linearGradient>
  <linearGradient xlink:href="#0" id="1" gradientUnits="userSpaceOnUse" gradientTransform="translate(4e-7,-48)" y1="47" x2="0" y2="1"/>
  <clipPath id="2">
   <g transform="translate(0,-1004.3622)">
    <rect rx="4" y="1005.36" x="1" height="46" width="46" fill="#1890d0"/>
   </g>
  </clipPath>
  <clipPath id="3">
   <g transform="translate(0,-1004.3622)">
    <rect rx="4" y="1005.36" x="1" height="46" width="46" fill="#1890d0"/>
   </g>
  </clipPath>
 </defs>
 <g>
  <g transform="translate(0,-1004.3622)">
   <path d="m 5,1006.3622 c -2.216,0 -4,1.784 -4,4 l 0,37.25 c 0,2.216 1.784,4 4,4 l 38,0 c 2.216,0 4,-1.784 4,-4 l 0,-37.25 c 0,-2.216 -1.784,-4 -4,-4 l -38,0 z m -4,41.5 0,0.5 c 0,2.216 1.784,4 4,4 l 38,0 c 2.216,0 4,-1.784 4,-4 l 0,-0.5 c 0,2.216 -1.784,4 -4,4 l -38,0 c -2.216,0 -4,-1.784 -4,-4 z" opacity="0.02"/>
   <path d="m 1,1047.6122 0,0.25 c 0,2.216 1.784,4 4,4 l 38,0 c 2.216,0 4,-1.784 4,-4 l 0,-0.25 c 0,2.216 -1.784,4 -4,4 l -38,0 c -2.216,0 -4,-1.784 -4,-4 z" opacity="0.05"/>
   <rect width="46" height="46" x="1" y="1005.61" rx="4" opacity="0.1"/>
  </g>
 </g>
 <g>
  <g transform="translate(0,-1004.3622)">
   <rect rx="4" y="1005.36" x="1" height="46" width="46" fill="#e33a31"/>
  </g>
 </g>
 <g>
  <rect transform="scale(1,-1)" width="46" height="46" x="1" y="-46.998" rx="4" opacity="0.1" fill="url(#1)"/>
 </g>
 <g>
  <g clip-path="url(#2)">
   <g opacity="0.1">
    <g>
     <path d="M 24.15625 15 C 21.121094 15 16.65625 15.175781 15.3125 15.21875 C 13.855469 15.347656 13.300781 15.421875 12.5 16.09375 C 11.28125 17.160156 11 19.265625 11 22.46875 L 11 25.53125 C 11 29.1875 11.5 31.039062 12.3125 31.71875 C 13.25 32.511719 13.875 32.5625 14.5 32.65625 C 14.742188 32.691406 16.449219 33 24.0625 33 C 28.808594 33 32.890625 32.773438 33.3125 32.71875 C 33.992188 32.632812 34.953125 32.523438 35.6875 31.71875 C 36.777344 30.5 37 28.460938 37 25.53125 L 37 22 C 37 20.101562 36.886719 17.402344 35.6875 16.28125 C 34.78125 15.523438 34.441406 15.3125 32.5625 15.21875 C 32.03125 15.195312 27.394531 15 24.15625 15 Z M 21 18 L 27 18 L 27 25 L 29.46875 25 L 24 30.625 L 18.53125 25 L 21 25 Z M 21 18 "/>
    </g>
   </g>
  </g>
 </g>
 <g>
  <g clip-path="url(#3)">
   <g transform="translate(0,-1)">
    <g>
     <path d="M 24.15625 15 C 21.121094 15 16.65625 15.175781 15.3125 15.21875 C 13.855469 15.347656 13.300781 15.421875 12.5 16.09375 C 11.28125 17.160156 11 19.265625 11 22.46875 L 11 25.53125 C 11 29.1875 11.5 31.039062 12.3125 31.71875 C 13.25 32.511719 13.875 32.5625 14.5 32.65625 C 14.742188 32.691406 16.449219 33 24.0625 33 C 28.808594 33 32.890625 32.773438 33.3125 32.71875 C 33.992188 32.632812 34.953125 32.523438 35.6875 31.71875 C 36.777344 30.5 37 28.460938 37 25.53125 L 37 22 C 37 20.101562 36.886719 17.402344 35.6875 16.28125 C 34.78125 15.523438 34.441406 15.3125 32.5625 15.21875 C 32.03125 15.195312 27.394531 15 24.15625 15 Z M 21 18 L 27 18 L 27 25 L 29.46875 25 L 24 30.625 L 18.53125 25 L 21 25 Z M 21 18 " fill="#f9f9f9"/>
    </g>
   </g>
  </g>
 </g>
 <g>
  <g transform="translate(0,-1004.3622)">
   <path d="m 1,1043.3622 0,4 c 0,2.216 1.784,4 4,4 l 38,0 c 2.216,0 4,-1.784 4,-4 l 0,-4 c 0,2.216 -1.784,4 -4,4 l -38,0 c -2.216,0 -4,-1.784 -4,-4 z" opacity="0.1"/>
  </g>
 </g>
</svg>

<svg viewBox="0 0 48 48"><defs><linearGradient id="linearGradient3764" x1="1" x2="47" gradientUnits="userSpaceOnUse" gradientTransform="translate(-48.000001,0.00221467)"><stop stop-color="#e1281f" stop-opacity="1"/><stop offset="1" stop-color="#e33a31" stop-opacity="1"/></linearGradient><clipPath id="clipPath-107040450"><g transform="translate(0,-1004.3622)"><rect rx="4" y="1005.36" x="1" height="46" width="46" fill="#1890d0"/></g></clipPath><clipPath id="clipPath-120477137"><g transform="translate(0,-1004.3622)"><rect rx="4" y="1005.36" x="1" height="46" width="46" fill="#1890d0"/></g></clipPath></defs><g><path d="m 1 43 l 0 0.25 c 0 2.216 1.784 4 4 4 l 38 0 c 2.216 0 4 -1.784 4 -4 l 0 -0.25 c 0 2.216 -1.784 4 -4 4 l -38 0 c -2.216 0 -4 -1.784 -4 -4 z m 0 0.5 l 0 0.5 c 0 2.216 1.784 4 4 4 l 38 0 c 2.216 0 4 -1.784 4 -4 l 0 -0.5 c 0 2.216 -1.784 4 -4 4 l -38 0 c -2.216 0 -4 -1.784 -4 -4 z" opacity="0.02"/><path d="m 1 43.25 l 0 0.25 c 0 2.216 1.784 4 4 4 l 38 0 c 2.216 0 4 -1.784 4 -4 l 0 -0.25 c 0 2.216 -1.784 4 -4 4 l -38 0 c -2.216 0 -4 -1.784 -4 -4 z" opacity="0.05"/><path d="m 1 43 l 0 0.25 c 0 2.216 1.784 4 4 4 l 38 0 c 2.216 0 4 -1.784 4 -4 l 0 -0.25 c 0 2.216 -1.784 4 -4 4 l -38 0 c -2.216 0 -4 -1.784 -4 -4 z" opacity="0.1"/></g><g><rect width="46" height="46" x="-47" y="1" rx="4" transform="matrix(0,-1,1,0,0,0)" fill="url(#linearGradient3764)" fill-opacity="1"/></g><g><g clip-path="url(#clipPath-107040450)"><g opacity="0.1"><!-- color: #e33a31 --><g><path d="m 24.16 15 c -3.035 0 -7.5 0.176 -8.844 0.219 c -1.457 0.129 -2.01 0.203 -2.813 0.875 c -1.219 1.066 -1.5 3.172 -1.5 6.375 l 0 3.063 c 0 3.656 0.5 5.508 1.313 6.188 c 0.938 0.793 1.563 0.844 2.188 0.938 c 0.242 0.035 1.949 0.344 9.563 0.344 c 4.746 0 8.828 -0.227 9.25 -0.281 c 0.68 -0.086 1.641 -0.195 2.375 -1 c 1.09 -1.219 1.313 -3.258 1.313 -6.188 l 0 -3.531 c 0 -1.898 -0.113 -4.598 -1.313 -5.719 c -0.906 -0.758 -1.246 -0.969 -3.125 -1.063 c -0.531 -0.023 -5.168 -0.219 -8.406 -0.219 m -3.156 3 l 6 0 l 0 7 l 2.469 0 l -5.469 5.625 l -5.469 -5.625 l 2.469 0 m 0 -7" fill="#000"/></g></g></g></g><g><g clip-path="url(#clipPath-120477137)"><g transform="translate(0,-1)"><!-- color: #e33a31 --><g><path d="m 24.16 15 c -3.035 0 -7.5 0.176 -8.844 0.219 c -1.457 0.129 -2.01 0.203 -2.813 0.875 c -1.219 1.066 -1.5 3.172 -1.5 6.375 l 0 3.063 c 0 3.656 0.5 5.508 1.313 6.188 c 0.938 0.793 1.563 0.844 2.188 0.938 c 0.242 0.035 1.949 0.344 9.563 0.344 c 4.746 0 8.828 -0.227 9.25 -0.281 c 0.68 -0.086 1.641 -0.195 2.375 -1 c 1.09 -1.219 1.313 -3.258 1.313 -6.188 l 0 -3.531 c 0 -1.898 -0.113 -4.598 -1.313 -5.719 c -0.906 -0.758 -1.246 -0.969 -3.125 -1.063 c -0.531 -0.023 -5.168 -0.219 -8.406 -0.219 m -3.156 3 l 6 0 l 0 7 l 2.469 0 l -5.469 5.625 l -5.469 -5.625 l 2.469 0 m 0 -7" fill="#f9f9f9"/></g></g></g></g><g><g transform="translate(0,-1004.3622)"><path d="m 1 1043.36 0 4 c 0 2.216 1.784 4 4 4 l 38 0 c 2.216 0 4 -1.784 4 -4 l 0 -4 c 0 2.216 -1.784 4 -4 4 l -38 0 c -2.216 0 -4 -1.784 -4 -4 z" opacity="0.1"/></g></g></svg>
